X: 25468
T: Marche Nuptiale From Berry
R: slide
M: 12/8
K: Gmajor
|:DGB DGB BAG A2F|DFA DFA cBA B2G|
DGB DGB BAG A2F|DFA DFA cBA G3:|
|:DGB d2e d2c A3|DFA c2c cBA B2G|
DGB d2e d2c A3|DFA DFA cBA G3:|

